assets/img/icons/duotone-icons/General/Unlock.svg

<?xml version="1.0" encoding="UTF-8"?>
<svg width="24px" height="24px" viewBox="0 0 24 24" version="1.1" xmlns="http://www.w3.org/2000/svg" xmlns:xlink="http://www.w3.org/1999/xlink">
    <!-- Generator: Sketch 52.2 (67145) - http://www.bohemiancoding.com/sketch -->
    <title>Stockholm-icons / General / Unlock</title>
    <desc>Created with Sketch.</desc>
    <defs>
        <polygon id="path-1" points="0 0 24 0 24 24 0 24"></polygon>
    </defs>
    <g id="Stockholm-icons-/-General-/-Unlock" stroke="none" stroke-width="1" fill="none" fill-rule="evenodd">
        <mask id="mask-2" fill="white">
            <use xlink:href="#path-1"></use>
        </mask>
        <g id="bound"></g>
        <path d="M15.6274517,4.55882251 L14.4693753,6.2959371 C13.9280401,5.51296885 13.0239252,5 12,5 C10.3431458,5 9,6.34314575 9,8 L9,10 L14,10 L17,10 L18,10 C19.1045695,10 20,10.8954305 20,12 L20,18 C20,19.1045695 19.1045695,20 18,20 L6,20 C4.8954305,20 4,19.1045695 4,18 L4,12 C4,10.8954305 4.8954305,10 6,10 L7,10 L7,8 C7,5.23857625 9.23857625,3 12,3 C13.4280904,3 14.7163444,3.59871093 15.6274517,4.55882251 Z" id="Combined-Shape" fill="#335EEA"></path>
    </g>
</svg>

<svg width="24" height="24" viewBox="0 0 24 24" xmlns="http://www.w3.org/2000/svg"><defs><path id="a" d="M0 0h24v24H0z"/></defs><g fill="none" fill-rule="evenodd"><path d="M15.627 4.559L14.47 6.296A3 3 0 009 8l.001 2h9a2 2 0 012 2v6a2 2 0 01-2 2H6a2 2 0 01-2-2v-6a2 2 0 012-2h1V8a5 5 0 018.627-3.441z" fill="#335EEA"/></g></svg>
